Newaita-dark/.DP/22/discord-tray-deafened.svg

<svg xmlns="http://www.w3.org/2000/svg" xmlns:xlink="http://www.w3.org/1999/xlink" width="22px" height="22px" viewBox="0 0 22 22" version="1.1">
<g id="surface1">
<path style=" stroke:none;fill-rule:nonzero;fill:rgb(93.333334%,93.333334%,93.333334%);fill-opacity:0.392157;" d="M 8.621094 5.261719 C 7.203125 5.332031 5.792969 5.886719 4.691406 6.765625 C 3.4375 9.261719 2.707031 12.042969 2.691406 14.839844 C 2.578125 16.339844 5.335938 16.925781 6.972656 16.960938 C 7.8125 16.917969 8.390625 16.144531 7.832031 15.785156 C 7.089844 15.519531 6.019531 15.285156 5.484375 14.789062 C 4.902344 14.402344 5.097656 14.011719 5.457031 14.167969 C 7.070312 15.183594 8.976562 15.734375 10.882812 15.753906 C 10.886719 15.753906 10.890625 15.753906 10.894531 15.753906 C 10.902344 15.753906 10.90625 15.753906 10.910156 15.753906 C 12.816406 15.734375 14.722656 15.183594 16.335938 14.167969 C 16.695312 14.011719 16.886719 14.402344 16.308594 14.789062 C 15.773438 15.285156 14.703125 15.519531 13.960938 15.785156 C 13.402344 16.144531 13.980469 16.917969 14.820312 16.960938 C 16.457031 16.925781 19.210938 16.339844 19.101562 14.839844 C 19.085938 12.042969 18.355469 9.261719 17.101562 6.765625 C 16 5.886719 14.589844 5.332031 13.171875 5.261719 C 13.101562 5.277344 13.0625 5.386719 13.007812 5.433594 C 14.324219 5.816406 15.628906 6.363281 16.6875 7.257812 C 15.535156 6.664062 14.300781 6.21875 13.019531 6.027344 C 12.316406 5.90625 11.605469 5.847656 10.894531 5.851562 C 10.183594 5.847656 9.476562 5.90625 8.773438 6.027344 C 7.492188 6.21875 6.253906 6.664062 5.105469 7.257812 C 6.160156 6.363281 7.46875 5.816406 8.785156 5.433594 C 8.730469 5.386719 8.691406 5.277344 8.621094 5.261719 Z M 7.8125 10.140625 C 8.667969 10.140625 9.359375 10.828125 9.359375 11.6875 C 9.359375 12.546875 8.667969 13.238281 7.8125 13.238281 C 6.953125 13.238281 6.261719 12.546875 6.261719 11.6875 C 6.261719 10.828125 6.953125 10.140625 7.8125 10.140625 Z M 14.007812 10.140625 C 14.867188 10.140625 15.558594 10.828125 15.558594 11.6875 C 15.558594 12.546875 14.867188 13.238281 14.007812 13.238281 C 13.152344 13.238281 12.460938 12.546875 12.460938 11.6875 C 12.460938 10.828125 13.152344 10.140625 14.007812 10.140625 Z M 14.007812 10.140625 "/>
</g>
</svg>

<svg xmlns="http://www.w3.org/2000/svg" width="22pt" height="22pt" viewBox="0 0 22 22"><path d="M8.621 5.266a6.9 6.9 0 0 0-3.93 1.5c-1.253 2.496-1.984 5.277-2 8.074-.113 1.5 2.645 2.086 4.282 2.12.836-.042 1.418-.815.859-1.175-.742-.265-1.812-.5-2.348-.996-.578-.387-.386-.777-.027-.621a10.453 10.453 0 0 0 5.426 1.586h.027c1.906-.02 3.813-.57 5.426-1.586.36-.156.55.234-.031.621-.532.496-1.602.73-2.344.996-.563.36.02 1.133.86 1.176 1.636-.035 4.39-.621 4.28-2.121-.015-2.797-.746-5.578-2-8.074a6.901 6.901 0 0 0-3.933-1.5c-.066.011-.105.12-.16.168 1.316.382 2.62.93 3.68 1.824-1.153-.594-2.387-1.04-3.668-1.23a12.126 12.126 0 0 0-2.125-.176c-.711-.004-1.422.054-2.122.175-1.28.192-2.52.637-3.668 1.23 1.055-.894 2.364-1.44 3.68-1.823-.055-.047-.094-.157-.164-.168zm-.812 4.87c.859 0 1.55.692 1.55 1.552 0 .859-.691 1.55-1.55 1.55a1.546 1.546 0 0 1-1.547-1.55c0-.86.691-1.551 1.547-1.551zm6.203 0c.855 0 1.547.692 1.547 1.552 0 .859-.692 1.55-1.547 1.55-.86 0-1.551-.691-1.551-1.55 0-.86.691-1.551 1.55-1.551zm0 0" fill="#bdbdbd" fill-opacity=".392"/></svg>
